assets/icons/kids/bundle.svg

<svg width="12" height="12" viewBox="0 0 12 12" fill="none" xmlns="http://www.w3.org/2000/svg">
<path d="M5.50114 7.21196C5.84291 7.38585 6.24748 7.38415 6.58802 7.20789L10.2323 5.32067L10.4723 5.44098C10.9065 5.65924 10.9103 6.27823 10.4787 6.50171L6.58802 8.51564C6.24745 8.69193 5.84294 8.69363 5.50114 8.51971L1.5256 6.49648C1.0915 6.27559 1.09176 5.65531 1.52618 5.43517L1.76855 5.31254L5.50114 7.21196Z" fill="#EE0097"/>
<path d="M5.50114 9.07196C5.84291 9.24584 6.24748 9.24415 6.58802 9.06789L10.2323 7.18067L10.4723 7.30098C10.9065 7.51923 10.9103 8.13823 10.4787 8.3617L6.58802 10.3756C6.24745 10.5519 5.84294 10.5536 5.50114 10.3797L1.5256 8.35647C1.0915 8.13558 1.09176 7.5153 1.52618 7.29517L1.76855 7.17253L5.50114 9.07196Z" fill="#EE0097"/>
<path d="M10.4787 4.66851L6.58838 6.6829C6.24778 6.85927 5.84306 6.8607 5.50121 6.68676L1.52546 4.66371C1.0913 4.4428 1.09192 3.82234 1.52651 3.60229L5.44024 1.62057C5.7771 1.45 6.17491 1.44936 6.51231 1.61886L10.4722 3.60816C10.9065 3.82635 10.9103 4.44501 10.4787 4.66851Z" fill="#EE0097"/>
<path d="M10.4787 4.66851L6.58838 6.6829C6.24778 6.85927 5.84306 6.8607 5.50121 6.68676L1.52546 4.66371C1.0913 4.4428 1.09192 3.82234 1.52651 3.60229C1.8483 4.94706 7.6287 4.87342 10.4787 4.66851Z" fill="#D20A89"/>
</svg>

<svg xmlns="http://www.w3.org/2000/svg" width="12" height="12" fill="none" viewBox="0 0 12 12"><path fill="#ee0097" d="M5.501 7.212a1.19 1.19 0 0 0 1.087-.004l3.644-1.887.24.12a.596.596 0 0 1 .007 1.06L6.588 8.517a1.19 1.19 0 0 1-1.087.004L1.526 6.496a.595.595 0 0 1 0-1.06l.243-.123z"/><path fill="#ee0097" d="M5.501 9.072a1.19 1.19 0 0 0 1.087-.004l3.644-1.887.24.12a.596.596 0 0 1 .007 1.06l-3.891 2.015a1.19 1.19 0 0 1-1.087.004L1.526 8.356a.595.595 0 0 1 0-1.06l.243-.123zm4.978-4.403-3.89 2.014a1.19 1.19 0 0 1-1.088.004L1.525 4.664a.595.595 0 0 1 .002-1.062L5.44 1.621a1.19 1.19 0 0 1 1.072-.002l3.96 1.99a.595.595 0 0 1 .007 1.06"/><path fill="#d20a89" d="m10.479 4.669-3.89 2.014a1.19 1.19 0 0 1-1.088.004L1.525 4.664a.595.595 0 0 1 .002-1.062c.321 1.345 6.102 1.271 8.952 1.067"/></svg>
